!!!OTL: SO OFT ICH MEINE TABACKSPFEIFE
!!!ARE: Europa, Mitteleuropa, Deutschland, Schlesien
!!!SCT: B0649A
!!!YEM: Copyright 1995, estate of Helmut Schaffrath.
**kern
*ICvox
*Ivox
*M4/4
*k[b-]
*F:
{8c
8f
8a
=1
4cc
4cc
4.ff
8a
=2
8cc
8b-
4b-
8r}
{8b-
8b-
8b-
=3
4a
4cc
8.dd
16b-
8g
8a
=4
4f
4.r}
{8c
8f
8a
=5
4cc
4cc
4.ff
8a
=6
8cc
8b-
4b-
8r}
{8b-
8b-
8b-
=7
4a
4cc
8.dd
16b-
8g
8a
=8
2.f
8r}
{8r
=9
8cc
8cc
8cc
8cc
8b-
8dd
8dd}
{8cc
=10
8ee
8ee
8ee
8ee
8cc
8ff
8ff}
{8a
=11
8cc
8cc
8cc
8cc
8.dd
16b-
8g
8a
=12
4f
4.r}
==
!!!AGN: Moral -, Lob - Lied auf den Tabak
!!!ONB: ESAC (Essen Associative Code) Database: BOEHME
!!!AMT: simple quadruple
!!!AIN: vox
!!!EED: Helmut Schaffrath
!!!EEV: 1.0
*-
